X:1134
T:Schottis från Gumboda
O:Gumboda, Västerbottens
R:Schottis
Z:Klas Krantz, 2006
N:Gumboda ligger i Västerbottens kustland
L:1/8
M:4/4
K:D
"D"A>B A>G F>G F>E | D>F A>d f2f2 | "A7"g>g g>f e2e2 | "D"f>g f>e d2d2 |
A>B A>G F>G F>E | D>F A>d f2f2 | "A7"g>g g>f e>g f>e | "D"d2d2d2z2 :|]
|:"D"A2f>ed2F2 | "Em"G>A G>FE2E2 | "A7"E2g>ec2c2 | "D"A>A f>ed2d2 |
A2f>ed2F2 | "Em"G>A G>FE2E2 | "A7"E2g>e c>A B>c | "D"d2d2d4 :|]
(:musicend:)

Denna låt har lite [[!lite information]] - varifrån kommer den och vem är den efter?

Grov text som sjöngs till 2:a reprisen
av Gnid & Drag, Umeå i slutet av 1970-talet:

Jävlar anamma, saatani vitti, 
Draklar i badet och Dynja böli djävul

Jävlar anamma, saatani vitti, 
Draklar i badet och Dynja böli fan

(:music:)
